svgs/light/flux-capacitor.svg

<svg xmlns="http://www.w3.org/2000/svg" viewBox="0 0 448 512"><path d="M448,112V400a80.15451,80.15451,0,0,1-80,80H80A80.15451,80.15451,0,0,1,0,400V112A80.15451,80.15451,0,0,1,80,32H368A80.15451,80.15451,0,0,1,448,112Zm-32,0a48.0927,48.0927,0,0,0-48-48H80a48.0927,48.0927,0,0,0-48,48V400a48.0927,48.0927,0,0,0,48,48H368a48.0927,48.0927,0,0,0,48-48Zm-32,64a80.034,80.034,0,0,1-80,80,92.12951,92.12951,0,0,1-11.18751-1l45.125-45.0625c7.625-7.73438,13.78126-22.8125,13.78126-33.65625a48.01238,48.01238,0,0,0-48-48c-10.84375,0-25.90626,6.17187-33.65626,13.78125L224,188.125l-46.06251-46.10938c-7.75-7.60937-22.81249-13.78124-33.65624-13.78124a48.01238,48.01238,0,0,0-48,48c0,10.84374,6.15625,25.9375,13.78125,33.67187L155.1875,255A92.12916,92.12916,0,0,1,144,256a80,80,0,1,1,80-80,80,80,0,0,1,160,0ZM208,336V262.625l-75.3125-75.3125a18.38329,18.38329,0,0,1-4.375-11.01562,15.97086,15.97086,0,0,1,16-16,18.49292,18.49292,0,0,1,11,4.39062L224,233.375l68.68749-68.6875a18.49294,18.49294,0,0,1,11-4.39062,15.97086,15.97086,0,0,1,16,16,18.38323,18.38323,0,0,1-4.375,11.01562L240,262.625V336a16,16,0,0,1-32,0Zm96,0a80.00157,80.00157,0,1,1-129.93751-62L176,275.875V336a48,48,0,0,0,96,0V275.875L273.93749,274A79.34533,79.34533,0,0,1,304,336Z"/></svg>

<svg xmlns="http://www.w3.org/2000/svg" viewBox="0 0 448 512"><!--! Font Awesome Pro 6.0.0-alpha3 by @fontawesome - https://fontawesome.com License - https://fontawesome.com/license (Commercial License) --><path d="M448 112v288c-.125 44.13-35.88 79.88-80 80h-288c-44.13-.125-79.88-35.88-80-80v-288C.125 67.88 35.88 32.12 80 32h288C412.1 32.12 447.9 67.88 448 112zM416 112C416 85.5 394.5 64 368 64h-288C53.5 64 32 85.5 32 112v288C32 426.5 53.5 448 80 448h288c26.5 0 48-21.5 48-48V112zM384 176C384 220.1 348.1 256 304 256c-3.75-.125-7.5-.5-11.25-1l45.12-44.1c7.625-7.751 13.88-22.88 13.88-33.75c0-26.5-21.5-48-48-48c-10.88 0-26 6.25-33.75 13.75L224 188.1L177.9 142C170.1 134.4 155.1 128.2 144.2 128.2c-26.5 0-48 21.5-48 48c0 10.88 6.25 25.88 13.75 33.63L155.2 255C151.5 255.5 147.8 255.9 144 256C99.88 256 64 220.1 64 176S99.88 96 144 96S224 131.9 224 176C224 131.9 259.9 96 304 96S384 131.9 384 176zM208 336V262.6L132.8 187.2c-2.75-3-4.25-6.875-4.5-11C128.2 172 129.1 168 133 165C136 162 140.1 160.2 144.4 160.2c4 .25 7.875 1.751 10.87 4.5L224 233.4l68.63-68.63c3.125-2.749 7-4.25 11-4.5c4.25 0 8.375 1.751 11.38 4.75C317.1 168 319.8 172 319.6 176.2c-.125 4.125-1.625 8-4.375 11L240 262.6V336c0 8.875-7.125 16-16 16S208 344.9 208 336zM304 336.1c.25 37.38-25.5 69.81-61.88 78.31C205.8 422.9 168.4 405 152 371.4c-16.25-33.62-7.125-74 21.1-97.37L176 275.9V336c0 26.5 21.5 48 48 48s48-21.5 48-48V275.9l1.875-1.874C292.9 289 304 311.9 304 336.1z"/></svg>
